!!!COM: Haydn, Franz Joseph
!!!OTL: String Quartet in D Major
!!!OPS: Opus 17
!!!ONM: No. 6
!!!OMD: Finale: Allegro
!!!OMV: 4
!!!SCT: H III:30
!!!SCA: Thematisch-bibliographisches Werkevererzeichnis (A. van Hoboken)
!!!YOR: Trautwein Edition
!!!ENC: Frances Bennion
!!!CDT: 1732/3/31/-1809/5/31/
!!!CNT: Oesterreich
!!!YEC: Copyright (c) 1994, 2000 Center for Computer Assisted Research in the Humanities
!!!YEM: Rights to all derivative editions reserved.
!!!YEM: Refer to licensing agreement for further details.
!!!YEN: United States of America
**kern	**kern	**kern	**kern
*k[f#c#]	*k[f#c#]	*k[f#c#]	*k[f#c#]
*D:	*D:	*D:	*D:
*clefF4	*clefC3	*clefG	*clefG
*M2/4	*M2/4	*M2/4	*M2/4
4.r	4.r	4.r	4.r
8r	8r	8dd	8ff#
=1	=1	=1	=1
2r	2r	8ee	8gg
.	.	8gg	8bb
.	.	16cc#	16ee
.	.	16dd	16ff#
.	.	16ee	16gg
.	.	16cc#	16ee
=2	=2	=2	=2
2r	2r	8dd	8ff#
.	.	8ff#	8aa
.	.	8r	8r
.	.	8f#	8dd
=3	=3	=3	=3
2r	2r	8g	8ee
.	.	8b	8gg
.	.	16e	16cc#
.	.	16f#	16dd
.	.	16g	16ee
.	.	16e	16cc#
=4	=4	=4	=4
[2DD	4.r	8f#	8dd
.	.	8a	8ff#
.	.	8r	4r
.	8d	8f#	.
=5	=5	=5	=5
2DD_	8e	8g	2r
.	8g	8b	.
.	16c#	16e	.
.	16d	16f#	.
.	16e	16g	.
.	16c#	16e	.
=6	=6	=6	=6
2DD_	8d	8f#	8r
.	8f#	8a	16ccc#
.	.	.	16ddd
.	8r	8r	[4dd
.	8F#	8d	.
=7	=7	=7	=7
2DD_	8G	8e	2dd_
.	8B	8g	.
.	16E	16c#	.
.	16F#	16d	.
.	16G	16e	.
.	16E	16c#	.
=8	=8	=8	=8
4DD]	8F#	8d	8dd]
.	8A	8f#	16ccc#
.	.	.	16ddd
4r	8r	8r	[4dd
.	8f#	8a	.
=9	=9	=9	=9
2r	8g	8b	2dd_
.	8b	8dd	.
.	16e	16g	.
.	16f#	16a	.
.	16g	16b	.
.	16e	16g	.
=10	=10	=10	=10
2r	8f#	8a	8dd]
.	8a	8f#	16ccc#
.	.	.	16ddd
.	8r	8r	[4dd
.	8d	8f#	.
=11	=11	=11	=11
2r	8e	8g	8dd]
.	8g	8e	8cc#
.	16c#	8a	4gg
.	16d	.	.
.	16e	8a	.
.	16c#	.	.
=12	=12	=12	=12
2r	8d	4a	4ff#
.	8f#	.	.
.	16B	4dd	8.gg#
.	16c#	.	.
.	16d	.	.
.	16B	.	32ff#
.	.	.	32gg#
=13	=13	=13	=13
4.r	4c#	4cc#	8aa
.	.	.	8ee
.	8r	4ee	[4ccc#
8A	16a	.	.
.	16g#	.	.
=14	=14	=14	=14
8B	8f#	2dd	4ccc#]
8d	8B	.	.
16G#	[4e	.	[4bb
16A	.	.	.
16B	.	.	.
16G#	.	.	.
=15	=15	=15	=15
8A	8e]	2cc#	4bb]
8c#	8A	.	.
8r	[4d	.	[4aa
8F#	.	.	.
=16	=16	=16	=16
8G#	8d]	2b	4aa]
8B	8G#	.	.
16E	[4c#	.	[4gg#
16F#	.	.	.
16G#	.	.	.
16E	.	.	.
=17	=17	=17	=17
8F#	8c#]	2a	4gg#]
8A	8F#	.	.
8r	[4B	.	[4ff#
8D#	.	.	.
=18	=18	=18	=18
8E	4B]	4g#	4ff#]
8EE	.	.	.
16G#	4E	16b	8ee
16A	.	16cc#	.
16B	.	16dd	8dd
16G#	.	16b	.
=19	=19	=19	=19
4A	4E	4a	8cc#
.	.	.	8ee
4r	4cc#	[4a	8aa
.	.	.	8cc#
=20	=20	=20	=20
2r	2b	4a]	8dd
.	.	.	8ff#
.	.	[4g#	16b
.	.	.	16cc#
.	.	.	16dd
.	.	.	16b
=21	=21	=21	=21
2r	2a	4g#]	8cc#
.	.	.	8ee
.	.	[4f#	8r
.	.	.	8a
=22	=22	=22	=22
2r	2g#	4f#]	8b
.	.	.	8dd
.	.	[4e	16g#
.	.	.	16a
.	.	.	16b
.	.	.	16g#
=23	=23	=23	=23
2r	2f#	4e]	8a
.	.	.	8cc#
.	.	4d#	8r
.	.	.	8f#
=24	=24	=24	=24
8EE	4e	4e	8g#
8E	.	.	8b
8E	16g#	4ee	4ee
.	16a	.	.
8E	16b	.	.
.	16g#	.	.
=25	=25	=25	=25
8EE	8a	4dd#	8ff#
8E	8cc#	.	8aa
8E	16b	4dd	16gg#
.	16cc#	.	16aa
8E	16dd	.	16bb
.	16b	.	16gg#
=26	=26	=26	=26
8EE	8cc#	4cc#	8aa
8E	8e	.	8ccc#
8E	8e	16g#	16bb
.	.	16a	16ccc#
8E	8e	16b	16ddd
.	.	16g#	16bb
=27	=27	=27	=27
8EE	4e	8a	8ccc#
8E	.	8cc#	8eee
8E	4A	16f#	16ddd#
.	.	16g#	16eee
8E	.	16a	16fff#
.	.	16f#	16ddd#
=28	=28	=28	=28
4EE	4G#	8g#	[2eee
.	.	8b	.
8r	8r	4ee	.
8e	16cc#	.	.
.	16b	.	.
=29	=29	=29	=29
8d	8a	2ff#	4eee]
8f#	8d	.	.
16B	[4g#	.	[4ddd
16c#	.	.	.
16d	.	.	.
16B	.	.	.
=30	=30	=30	=30
8c#	8g#]	2ee	4ddd]
8e	8c#	.	.
8r	[4f#	.	[4ccc#
8A	.	.	.
=31	=31	=31	=31
8B	8f#]	2dd	4ccc#]
8d	8B	.	.
16G#	[4e	.	[4bb
16A	.	.	.
16B	.	.	.
16G#	.	.	.
=32	=32	=32	=32
16A	8e]	2cc#	4bb]
16B	.	.	.
16c#	8A	.	.
16A	.	.	.
16F#	8f#	.	8aa
16G#	.	.	.
16A	8f#	.	8cc#
16F#	.	.	.
=33	=33	=33	=33
4D	8f#	8b 8d	8b
.	8r	8r	8aa
4E	8d	8g# 8B	8e
.	8r	8r	8gg#
=34	=34	=34	=34
4AA	4c#	4a 4A	16a
.	.	.	16cc#
.	.	.	16ee
.	.	.	16cc#
4r	4r	4r	16g#
.	.	.	16b
.	.	.	16ee
.	.	.	16b
=35	=35	=35	=35
4G#	8e	8b	16b
.	.	.	16dd
.	8r	8r	16ee
.	.	.	16dd
4A	8e	8cc#	16a
.	.	.	16cc#
.	8r	8r	16ee
.	.	.	16cc#
=36	=36	=36	=36
4AA	4c#	4A 4a	16a
.	.	.	16cc#
.	.	.	16ee
.	.	.	16cc#
4r	4r	4r	16g#
.	.	.	16b
.	.	.	16ee
.	.	.	16b
=37	=37	=37	=37
4G#	8e	8b	16b
.	.	.	16dd
.	8r	8r	16ee
.	.	.	16dd
4A	8e	8cc#	16a
.	.	.	16cc#
.	8r	8r	16ee
.	.	.	16cc#
=38	=38	=38	=38
4D	4f#	4b	16d
.	.	.	16b
.	.	.	16ff#
.	.	.	16ee
8r	8r	8r	16dd
.	.	.	16cc#
8D#	8d#	8f#	16b
.	.	.	16a
=39	=39	=39	=39
4E	4e	4B	16g#
.	.	.	16gg#
.	.	.	16bb
.	.	.	16aa
8r	8r	8r	16gg#
.	.	.	16ff#
8G#	8e	8b	16ee
.	.	.	16dd
=40	=40	=40	=40
4A	4e	4e	16cc#
.	.	.	16dd
.	.	.	16ee
.	.	.	16dd
8r	8r	8r	16cc#
.	.	.	16b
8C#	8A	8e	16a
.	.	.	16g
=41	=41	=41	=41
4D	4A	4A	8f#
.	.	.	8aa
4r	4r	4r	8gg#
.	.	.	8gg
=42	=42	=42	=42
2r	2r	2r	8ff#
.	.	.	8ff
.	.	.	8ee
.	.	.	8dd#
=43	=43	=43	=43
2r	2r	2r	8ee
.	.	.	8ee#
.	.	.	8ff#
.	.	.	8aa
=44	=44	=44	=44
8E	4c#	8e	4e
8E	.	4aa	.
8E	8B	.	4bb
8E	8d	8gg#	.
=45	=45	=45	=45
4A	4c#	4aa	16aa
.	.	.	16ee
.	.	.	16ee
.	.	.	16ee
4r	4r	4r	16ee
.	.	.	16ee
.	.	.	16ee
.	.	.	16ee
=46	=46	=46	=46
4B	4d	4g#	16ff
.	.	.	16ee
.	.	.	16ee
.	.	.	16ee
4r	4r	4r	16ee
.	.	.	16ee
.	.	.	16ee
.	.	.	16ee
=47	=47	=47	=47
4B	4d	4ee	16gg#
.	.	.	16ee
.	.	.	16ee
.	.	.	16ee
4r	4r	4r	16ee
.	.	.	16ee
.	.	.	16ee
.	.	.	16ee
=48	=48	=48	=48
4A	8a	8aa	16aa
.	.	.	16a
.	8b	8gg#	16bb
.	.	.	16a
4r	8cc	8aa	16ccc
.	.	.	16a
.	8dd	8bb	16ddd
.	.	.	16a
=49	=49	=49	=49
8AA	4.ee	4.ccc	4.eee 4.a
8A	.	.	.
8A	.	.	.
8A	8dd#	8bb	8ddd#
=50	=50	=50	=50
8A	8ee	8ccc	8eee 8a
8A	8dd#	8bb	8ddd#
8A	8ee	8ccc	8eee
8A	8dd#	8bb	8ddd#
=51	=51	=51	=51
8A	8ee	8ccc	8eee 8a
8A	8dd	8ff	8ddd
8A	8cc	8ee	8ccc
8A	8b	8dd	8bb
=52	=52	=52	=52
8AA	2a	2cc	2aa 2a
8A	.	.	.
8A	.	.	.
8A	.	.	.
=53	=53	=53	=53
8AA	2cc	2ee	2ccc 2a
8A	.	.	.
8A	.	.	.
8A	.	.	.
=54	=54	=54	=54
8D#	[2a	[2cc	16dd#
.	.	.	16aa
8D#	.	.	16ccc
.	.	.	16aa
8D#	.	.	16ccc
.	.	.	16aa
8D#	.	.	16ccc
.	.	.	16aa
=55	=55	=55	=55
8D#	2a]	2cc]	16dd#
.	.	.	16aa
8D#	.	.	16ccc
.	.	.	16aa
8D#	.	.	16ccc
.	.	.	16aa
8D#	.	.	16ccc
.	.	.	16aa
=56	=56	=56	=56
8E	8e	16e	2ee
.	.	16a	.
8E	8e	16cc#	.
.	.	16a	.
8E	8e	16cc#	.
.	.	16a	.
8E	8e	16cc#	.
.	.	16a	.
=57	=57	=57	=57
8E	8e	16e	2bb
.	.	16b	.
8E	8e	16dd	.
.	.	16b	.
8E	8e	16dd	.
.	.	16b	.
8E	8e	16dd	.
.	.	16b	.
=58	=58	=58	=58
8AA	[2A	4cc#	4aa
8AA	.	.	.
8AA	.	8r	8r
8AA	.	8cc#	8ee
=59	=59	=59	=59
8AA	2A_	8dd	8ff#
8AA	.	8b	8dd
8AA	.	16g#	16b
.	.	16a	16cc#
8AA	.	16b	16dd
.	.	16g#	16b
=60	=60	=60	=60
8AA	2A_	8cc#	8ee
8AA	.	8a	8cc#
8AA	.	8r	8r
8AA	.	8e	8cc#
=61	=61	=61	=61
8AA	2A_	8f#	8dd
8AA	.	8d	8b
8AA	.	16B	16g#
.	.	16c#	16a
8AA	.	16d	16b
.	.	16B	16g#
=62	=62	=62	=62
4AA	4A]	8e	8cc#
.	.	8c#	8a
4r	4r	8r	8r
.	.	8a	8cc#
=63	=63	=63	=63
2r	2r	8b	8dd
.	.	8dd	8ff#
.	.	16g#	16b
.	.	16a	16cc#
.	.	16b	16dd
.	.	16g#	16b
=64	=64	=64	=64
4.r	4.r	8a	8cc#
.	.	8cc#	8ee
.	.	4r	4r
8c#	8a	.	.
=65	=65	=65	=65
8d	8b	2r	2r
8f#	8dd	.	.
16B	16g#	.	.
16c#	16a	.	.
16d	16b	.	.
16B	16g#	.	.
=66	=66	=66	=66
8c#	8a	4.r	4.r
8e	8cc#	.	.
4r	8r	.	.
.	[8dd	8dd	8ff#
=67	=67	=67	=67
2r	4dd]	2ee	8gg
.	.	.	8bb
.	[4cc#	.	16ee
.	.	.	16ff#
.	.	.	16gg
.	.	.	16ee
=68	=68	=68	=68
2r	4cc#]	2dd	8ff#
.	.	.	8aa
.	[4b	.	8r
.	.	.	8dd
=69	=69	=69	=69
2r	4b]	2cc#	8ee
.	.	.	8gg
.	4a#	.	16cc#
.	.	.	16dd
.	.	.	16ee
.	.	.	16cc#
=70	=70	=70	=70
4.r	4b	4b	8dd
.	.	.	8ff#
.	4dd	4r	[4bb
8D	.	.	.
=71	=71	=71	=71
8E	2cc#	4.r	4bb]
8G	.	.	.
16F#	.	.	[4aa
16G	.	.	.
16A	.	8f#	.
16F#	.	.	.
=72	=72	=72	=72
8D#	2b	16f#	4aa]
.	.	16g	.
8F#	.	16a	.
.	.	16f#	.
8r	.	16g	[4gg
.	.	16a	.
8E	.	16b	.
.	.	16g	.
=73	=73	=73	=73
8C#	2a	8e	4gg]
8E	.	8g	.
16D	.	8f#	[4ff#
16E	.	.	.
16F#	.	8d	.
16D	.	.	.
=74	=74	=74	=74
8BB	2g	16d	4ff#]
.	.	16e	.
8D	.	16f#	.
.	.	16d	.
8r	.	16e	[4ee
.	.	16f#	.
8C#	.	16g	.
.	.	16e	.
=75	=75	=75	=75
8AA#	2f#	8c#	4ee]
8C#	.	8e	.
16BB	.	8d	4dd
16C#	.	.	.
16D	.	8b	.
16BB	.	.	.
=76	=76	=76	=76
8FF#	4.f#	4.a#	8cc#
8F#	.	.	8f#
8F#	.	.	4ff#
8F#	8c#	8a#	.
=77	=77	=77	=77
8FF#	4d	4b	8gg
8F#	.	.	8ee
8F#	4e	4cc#	16cc#
.	.	.	16dd
8F#	.	.	16ee
.	.	.	16cc#
=78	=78	=78	=78
8FF#	4c#	4a#	8ff#
8F#	.	.	8dd
8F#	4d	4b	8r
8F#	.	.	8dd
=79	=79	=79	=79
8FF#	4B	4g#	8ee
8F#	.	.	8cc#
8F#	4c#	4a#	16a#
.	.	.	16b
8F#	.	.	16cc#
.	.	.	16a#
=80	=80	=80	=80
8FF#	4B	4b	8dd
8F#	.	.	8b
8F#	4G#	4e#	8r
8F#	.	.	8b
=81	=81	=81	=81
4F#	4F#	4f#	8a#
.	.	.	8cc#
4r	4r	16f#	8f#
.	.	16g#	.
.	.	16a#	8e
.	.	16f#	.
=82	=82	=82	=82
2r	2r	16b	8d
.	.	16cc#	.
.	.	16dd	8B
.	.	16b	.
.	.	16cc#	8A#
.	.	16dd	.
.	.	16ee	8f#
.	.	16cc#	.
=83	=83	=83	=83
2r	2r	8dd	8B
.	.	8ff#	8d
.	.	8b	16b
.	.	.	16cc#
.	.	8a	16dd#
.	.	.	16b
=84	=84	=84	=84
2r	2r	8g	16ee
.	.	.	16ff#
.	.	8e	16gg
.	.	.	16ee
.	.	8d#	16ff#
.	.	.	16gg
.	.	8B	16aa
.	.	.	16ff#
=85	=85	=85	=85
2r	2r	8e	8gg
.	.	8g	8bb
.	.	16a	8a
.	.	16b	.
.	.	16cc#	8g
.	.	16a	.
=86	=86	=86	=86
2r	2r	16dd	8f#
.	.	16ee	.
.	.	16ff#	8d
.	.	16dd	.
.	.	16ee	8c#
.	.	16ff#	.
.	.	16gg	8A
.	.	16ee	.
=87	=87	=87	=87
4r	4r	8ff#	8d
.	.	8aa	8f#
8d	8d	8dd	16dd
.	.	.	16ee
8c	8a	8dd	16ff#
.	.	.	16dd
=88	=88	=88	=88
8B	8b	[2dd	16gg
.	.	.	16aa
8G	8g	.	16bb
.	.	.	16gg
8F#	8f#	.	16aa
.	.	.	16bb
8D	8a	.	16ccc
.	.	.	16aa
=89	=89	=89	=89
4.G	4.g	4.dd]	16bb
.	.	.	16aa
.	.	.	16gg
.	.	.	16ff#
.	.	.	16ee
.	.	.	16dd
8G#	8g#	8b	16cc#
.	.	.	16b
=90	=90	=90	=90
4A	4a	4e	4a
4r	4r	8r	8r
.	.	8d	8f#
=91	=91	=91	=91
2r	2r	8e	8g
.	.	8g	8b
.	.	16c#	16e
.	.	16d	16f#
.	.	16e	16g
.	.	16c#	16e
=92	=92	=92	=92
4.r	4.r	8d	8f#
.	.	8f#	8a
.	.	4ff#	8r
8d	8f#	.	8aa
=93	=93	=93	=93
8B	8d	8gg	8bb
8d	8B	8bb	8gg
16c#	16e	16gg	16ee
16d	16d	16ff#	16ff#
16e	16c#	16ee	16gg
16c#	16e	16gg	16ee
=94	=94	=94	=94
8A	8c#	8ff#	8aa
8c#	8A	8aa	8ff#
8r	8r	8r	8r
8B	8d	8dd	8ff#
=95	=95	=95	=95
8G	8B	8ee	8gg
8B	8G	8gg	8ee
16A	16c#	16ee	16cc#
16B	16B	16dd	16dd
16c#	16A	16cc#	16ee
16A	16c#	16ee	16cc#
=96	=96	=96	=96
8F#	8A	8dd	8ff#
8A	8F#	8ff#	8dd
4r	4r	16f#	16dd
.	.	16e	16ee
.	.	16d	16ff#
.	.	16f#	16dd
=97	=97	=97	=97
2r	2r	16g	16b
.	.	16a	16cc#
.	.	16b	16dd
.	.	16a	16b
.	.	16g	16ee
.	.	16f#	16ff#
.	.	16e	16gg
.	.	16g	16ee
=98	=98	=98	=98
4.r	2r	8a	4cc#
.	.	8cc#	.
.	.	[4aa	4r
8F#	.	.	.
=99	=99	=99	=99
8G	8dd	4aa]	2bb
8B	8g	.	.
16E	[4cc#	[4gg	.
16F#	.	.	.
16G	.	.	.
16E	.	.	.
=100	=100	=100	=100
8F#	8cc#]	4gg]	2aa
8A	8f#	.	.
8r	[4b	[4ff#	.
8D	.	.	.
=101	=101	=101	=101
8E	8b]	4ff#]	2gg
8G	8e	.	.
16C#	[4a	[4ee	.
16D	.	.	.
16E	.	.	.
16C#	.	.	.
=102	=102	=102	=102
8D	8a]	4ee]	2ff#
8F#	8d	.	.
8r	[4g	[4dd	.
8BB	.	.	.
=103	=103	=103	=103
8C#	8g]	4dd]	2ee
8E	8c#	.	.
16AA	[4f#	[4cc#	.
16BB	.	.	.
16C#	.	.	.
16AA	.	.	.
=104	=104	=104	=104
8BB	8f#]	4cc#]	2dd
8D	8B	.	.
8r	[4e	4b	.
8GG#	.	.	.
=105	=105	=105	=105
[2AA	8e]	8a	4cc#
.	8c#	8ee	.
.	8A	8aa	8r
.	8c#	[8f#	8aa
=106	=106	=106	=106
2AA_	4d	4f#]	8bb
.	.	.	8ddd
.	16e	[4g	16gg
.	16f#	.	16aa
.	16g	.	16bb
.	16e	.	16gg
=107	=107	=107	=107
2AA_	4c#	4g]	8aa
.	.	.	8ccc#
.	16d	[4f#	8r
.	16e	.	.
.	16f#	.	8ff#
.	16d	.	.
=108	=108	=108	=108
2AA_	4B	4f#]	8gg
.	.	.	8bb
.	16c#	[4e	16ee
.	16d	.	16ff#
.	16e	.	16gg
.	16c#	.	16ee
=109	=109	=109	=109
2AA_	4d	4e]	8ff#
.	.	.	8aa
.	16f#	4d	8r
.	16g	.	.
.	16a	.	8dd
.	16f#	.	.
=110	=110	=110	=110
2AA_	2b	4g	8ee
.	.	.	8gg
.	.	4g#	16b
.	.	.	16cc#
.	.	.	16dd
.	.	.	16b
=111	=111	=111	=111
4AA]	4e	2a	8cc#
.	.	.	8ee
4r	8r	.	[4aa
.	8f#	.	.
=112	=112	=112	=112
2r	8g	2b	4aa]
.	8b	.	.
.	16e	.	[4gg
.	16f#	.	.
.	16g	.	.
.	16e	.	.
=113	=113	=113	=113
4.r	8f#	2a	4gg]
.	8a	.	.
.	8r	.	[4ff#
8D	16dd	.	.
.	16cc#	.	.
=114	=114	=114	=114
8E	8b	2g	4ff#]
8G	8e	.	.
16C#	[4a	.	[4ee
16D	.	.	.
16E	.	.	.
16C#	.	.	.
=115	=115	=115	=115
16D	8a]	2f#	4ee]
16E	.	.	.
16F#	8d	.	.
16D	.	.	.
16BB	8b	.	8dd
16C#	.	.	.
16D	8r	.	8f#
16BB	.	.	.
=116	=116	=116	=116
4GG	8g	8b	8e
.	8r	8r	8dd
4AA	8a	8g	8A
.	8r	8r	8cc#
=117	=117	=117	=117
4D	4d	4f#	16d
.	.	.	16f#
.	.	.	16a
.	.	.	16f#
4r	4r	4r	16c#
.	.	.	16e
.	.	.	16a
.	.	.	16e
=118	=118	=118	=118
4c#	8A	8e	16e
.	.	.	16g
.	8r	8r	16a
.	.	.	16g
4d	8A	8f#	16d
.	.	.	16f#
.	8r	8r	16a
.	.	.	16f#
=119	=119	=119	=119
4D	4d	4f#	16d
.	.	.	16f#
.	.	.	16a
.	.	.	16f#
4r	4r	4r	16c#
.	.	.	16e
.	.	.	16a
.	.	.	16e
=120	=120	=120	=120
4c#	8A	8e	16e
.	.	.	16g
.	8r	8r	16a
.	.	.	16g
4d	8A	8f#	16d
.	.	.	16f#
.	8r	8r	16a
.	.	.	16f#
=121	=121	=121	=121
4G	4G	4e	16G
.	.	.	16e
.	.	.	16b
.	.	.	16a
8r	8r	8r	16g
.	.	.	16f#
8G#	8e	8B	16e
.	.	.	16d
=122	=122	=122	=122
4A	4e	4A	16c#
.	.	.	16cc#
.	.	.	16ee
.	.	.	16dd
8r	8r	8r	16cc#
.	.	.	16b
8C#	8e	8A	16a
.	.	.	16g
=123	=123	=123	=123
4D	4d	4A	16f#
.	.	.	16ff#
.	.	.	16aa
.	.	.	16gg
8r	8r	8r	16ff#
.	.	.	16ee
8F#	8a	8d	16dd
.	.	.	16cc
=124	=124	=124	=124
4G	4g	4d	8b
.	.	.	8bb
4r	4r	4r	8aa#
.	.	.	8aa
=125	=125	=125	=125
2r	2r	2r	8gg#
.	.	.	8gg
.	.	.	8ff#
.	.	.	8ee
=126	=126	=126	=126
2r	2r	2r	8dd#
.	.	.	8ee
.	.	.	8ff#
.	.	.	8gg
=127	=127	=127	=127
8A	4f#	8A	4a
8A	.	4dd	.
8A	8e	.	4ee
8A	8g	8cc#	.
=128	=128	=128	=128
4D	4f#	4dd	16dd
.	.	.	16a
.	.	.	16a
.	.	.	16a
4r	4r	4r	16a
.	.	.	16a
.	.	.	16a
.	.	.	16a
=129	=129	=129	=129
4G	4A	4c#	16b-
.	.	.	16a
.	.	.	16a
.	.	.	16a
4r	4r	4r	16a
.	.	.	16a
.	.	.	16a
.	.	.	16a
=130	=130	=130	=130
4E	4g	4a	16cc#
.	.	.	16a
.	.	.	16a
.	.	.	16a
4r	4r	4r	16a
.	.	.	16a
.	.	.	16a
.	.	.	16a
=131	=131	=131	=131
4D	8d	8dd	16dd
.	.	.	16d
.	8e	8cc#	16ee
.	.	.	16d
4r	8f	8dd	16ff
.	.	.	16d
.	8g	8ee	16gg
.	.	.	16d
=132	=132	=132	=132
8DD	4.a	4.ff	4.aa 4.d
8D	.	.	.
8D	.	.	.
8D	8g#	8ee	8gg#
=133	=133	=133	=133
8D	8a	8ff	8aa 8d
8D	8g#	8ee	8gg#
8D	8a	8ff	8aa
8D	8g#	8ee	8gg#
=134	=134	=134	=134
8D	8a	8ff	8aa 8d
8D	8g	8ee	8gg
8D	8f	8dd	8ff
8D	8e	8cc#	8ee
=135	=135	=135	=135
8DD	2f	[2dd	2dd 2d
8D	.	.	.
8D	.	.	.
8D	.	.	.
=136	=136	=136	=136
8DD	2A	2dd]	2ff 2d
8D	.	.	.
8D	.	.	.
8D	.	.	.
=137	=137	=137	=137
8G#	[2d	[2f	16g#
.	.	.	16ff
8G#	.	.	16ddd
.	.	.	16ff
8G#	.	.	16ddd
.	.	.	16ff
8G#	.	.	16ddd
.	.	.	16ff
=138	=138	=138	=138
8G#	2d]	2f]	16g#
.	.	.	16ff
8G#	.	.	16ddd
.	.	.	16ff
8G#	.	.	16ddd
.	.	.	16ff
8G#	.	.	16ddd
.	.	.	16ff
=139	=139	=139	=139
8A	8A	16A	2a
.	.	16d	.
8A	8A	16f#	.
.	.	16d	.
8A	8A	16f#	.
.	.	16d	.
8A	8A	16f#	.
.	.	16d	.
=140	=140	=140	=140
8A	8A	16A	2ee
.	.	16e	.
8A	8A	16g	.
.	.	16e	.
8A	8A	16g	.
.	.	16e	.
8A	8A	16g	.
.	.	16e	.
=141	=141	=141	=141
8D	[2D	4f#	4dd
8DD	.	.	.
8DD	.	8r	8r
8DD	.	8d	8f#
=142	=142	=142	=142
8DD	2D_	8e	8g
8DD	.	8g	8b
8DD	.	16c#	16e
.	.	16d	16f#
8DD	.	16e	16g
.	.	16c#	16e
=143	=143	=143	=143
8DD	4.D]	8d	8f#
8DD	.	8f#	8a
8DD	.	4r	8r
8DD	8F#	.	8d
=144	=144	=144	=144
8DD	8G	2r	8e
8DD	8B	.	8g
8DD	16E	.	16c#
.	16F#	.	16d
8DD	16G	.	16e
.	16E	.	16c#
=145	=145	=145	=145
4DD	8F#	4.r	8d
.	8A	.	8f#
4r	4r	.	8r
.	.	8ff#	8aa
=146	=146	=146	=146
2r	2r	8gg	8bb
.	.	8ee	8gg
.	.	16cc#	16ee
.	.	16dd	16ff#
.	.	16ee	16gg
.	.	16cc#	16ee
=147	=147	=147	=147
4r	4r	8ff#	8aa
.	.	8dd	8ff#
8F#	8a	8r	8r
8D	8f#	8a	8ff#
=148	=148	=148	=148
2r	2r	8b	8gg
.	.	8g	8ee
.	.	16e	16cc#
.	.	16f#	16dd
.	.	16g	16ee
.	.	16e	16cc#
=149	=149	=149	=149
4r	4r	8a	8ff#
.	.	8f#	8dd
8F#	8a	4r	4r
8D	8f#	.	.
=150	=150	=150	=150
4r	4r	8f#	8a
.	.	8d	8f#
8FF#	8A	4r	4r
8DD	8F#	.	.
=151	=151	=151	=151
2r	2r	8ff#	8aa
.	.	8dd	8ff#
.	.	4r	4r
==	==	==	==
*-	*-	*-	*-
!!!RWG1: This file contains only pitch and duration data.
!!!RWG2: Transposing instruments are not transposed.
!!!RWG3: Spines may have incompatible meters.
!!!RWG4: Durations of rests and tied notes may be interpreted.
!!!RWG: Key is interpreted using the Humdrum key tool.
!!!GTL: 6 Divertimentos
!!!AFT: stage1
!!!END: 1997/04/15
!!!KEY: 3741154755
!!!EMD: Converted from MuseData to Humdrum Dec 16, 2000, by Andreas Kornstaedt using muse2kern.
!!!EMD: Manual editing by Craig Sapp, Nov 2001
